X: 2
T: The Musical Priest
R: reel
M: 4/4
L: 1/8
K: Bmin
|:BA|FB~B2 BABd|cBAf ecBA|FB~B2 BABd|cBAF B2:||:Bc|d2dc dfed|(3cBA eA fAeA|1dcBc dfaf|edcd B2:|2dcBc dbaf|edcd B2 ||:Bc|dB~B2 bafb|afec Acec|dB~B2 bafb|afec B2:|


Tune 73	Setting 12545

